X:1
T:B b Major Daniel Read, 1785
T:Isaac Watts, 1709 (Hymn 15, Book 2) 88. 88. (L.M.)
T:Westford No copyright. Transcribed from The American Singing-Book, 1786.
%%score [ 1 2 3 4 ]
L:1/8
M:4/4
K:Bb
V:1 treble nm="Treble" snm="Tr."
V:2 treble nm="Counter" snm="C."
V:3 treble-8 nm="Tenor" snm="T."
V:4 bass nm="Bass" snm="B."
V:1
 z8 | z8 | z8 | z8 | z8 | z8 | z8 | z8 | f4 e2 d2 | c2 B2 F2 G2 | B4 B4 | B2 c2 d2 c2 | B2 B2 c4 | %13
w: ||||||||I wait a|vi- sit, Lord, from|Thee. *|||
w: ||||||||Ri- vers of|bliss per- pe- tual|glide. *|||
 c4 c2 B2 | c2 e2 d2 c2 | [Bd]8 | z4 B4 | d2 d2 d2 c2 | B2 B2 B2 AB | c2 c2 c2 B2 | A2 G2 F4 | %21
w: ||||||||
w: ||||||||
 F4 F2 F2 | A2 A2 Bc de | f2 fe d2 c2 | d2 B2 A2 A2 | B8 | z4 B4 |: d2 d2 d2 d2 | e2 e2 f2 fe | %29
w: ||||||||
w: ||||||||
 d2 d2 d2 c2 | c2 B2 A4 | B2 BB B2 A2 | B2 B2 cd e2 | f2 e2 d2 c2 |1 B2 c2 d4- ||1 d4 B4 :|2 %36
w: |||||||
w: |||||||
 B2 c2 d4- || d8 |] %38
w: ||
w: ||
V:2
 z8 | z8 | z8 | z8 | z8 | z4 D4 | F2 E2 D2 C2 | D2 E2 F4 | z8 | z8 | z4 F4 | F2 F2 F2 F2 | %12
w: |||||Fain|would my eyes my|Sa- vior see;|||Fain|would my eyes my|
w: |||||And|in sweet mur- murs,|by their side,|||And|in sweet mur- murs,|
 GA B2 A4 | A4 A2 G2 | F2 E2 F2 F2 | F8 | z4 F4 | F2 F2 F2 F2 | F2 F2 F2 F2 | C2 C2 C2 D2 | %20
w: Sa- * vior see;|I wait a|vi- sit, Lord, from|Thee.|My|heart grows warm with|ho- ly fire, And|kin- dles with a|
w: by * their side,|Ri- vers of|bliss per- pe- tual|glide.|Haste|then, but with a|smi- ling face, And|spread the ta- ble|
 C2 DE F4 | D4 F2 F2 | F2 F2 G2 FE | D2 D2 D2 E2 | F2 G2 F2 F2 | F8 | z4 F4 |: F2 F2 F2 F2 | %28
w: pure de- * sire;|Come, my dear|Je sus, from a *|bove, And feed my|soul with heav'n- ly|love.|Blest|Je- sus, what de-|
w: of Thy * grace;|Bring down a|taste of fruit di- *|vine, And cheer my|heart with sa- cred|wine.|Hail,|great Im- man- uel,|
 G2 G2 A2 B2 | F2 F2 F2 F2 | G2 F2 F4 | F2 FF G2 A2 | BA G2 F2 G2 | D2 E2 F2 G2 |1 F2 F2 F4- ||1 %35
w: li- cious fare, How|sweet Thy en- ter-|tain- ments are!|Ne- ver did an- gels|taste * a- bove Re-|dee- ming grace and|dy- ing love.~|
w: all di- vine! In|Thee Thy Fath- er's|glo- ries shine;|Thou brigh- test, swee- test,|fai- * rest one, That|eyes have seen or|an- gels known.~|
 F4 F4 :|2 F2 F2 F4- || F8 |] %38
w: _ Blest|dy- ing love.~|_|
w: _ Hail,|an- gels known.~|_|
V:3
 z8 | z8 | z8 | F4 B2 B2 | B2 cd ed cB | c4 z4 | z8 | z8 | z8 | z8 | z4 d4 | d2 c2 B2 c2 | %12
w: |||Let my re-|li- gious * hours * a- *|lone.|||||||
w: |||In fra- grant|rows at * Thy * right *|hand.|||||||
 d2 e2 f4 | f4 e2 d2 | c2 B2 F2 A2 | B8 | z4 F4 | B2 B2 B2 c2 | d2 d2 d2 cB | f2 f2 f2 d2 | %20
w: ||||||||
w: ||||||||
 e2 d2 c4 | f4 d2 cB | c2 F2 B2 Bc | d2 cB A2 G2 | F2 e2 d2 c2 | B8 | z4 B4 |: B2 B2 B2 A2 | %28
w: ||||||||
w: ||||||||
 G2 G2 F2 F2 | B2 B2 B2 cd | e2 d2 c4 | d2 dc B2 F2 | B2 d2 c2 B2 | f2 g2 f2 e2 |1 d2 c2 B4- ||1 %35
w: |||||||
w: |||||||
 B4 B4 :|2 d2 c2 B4- || B8 |] %38
w: |||
w: |||
V:4
 B,4 B,2 G,2 | (F,3 G, F,2) E,2 | D,2 C,2 B,,4 | F,4 B,,2 B,,2 | B,,2 E,D, C,2 C,2 | F,4 B,4 | %6
w: 1.~Far from my|thoughts, * * vain|world, be- gone,|||* Fain|
w: 2.~The trees of|life * * im-|mor- tal stand|||* And|
 B,2 B,2 B,2 A,2 | B,2 C2 F,4 | F,4 A,2 B,2 | F,2 G,2 F,2 F,2 | B,,4 [B,,B,]4 | %11
w: would my eyes my|Sa- vior see;|I wait a|vi- sit, Lord, from|Thee. *|
w: in sweet mur- murs,|by their side,|Ri- vers of|bliss per- pe- tual|glide. *|
 [B,,B,]2 F,2 B,2 A,2 | G,2 G,2 F,4 | F,4 A,2 B,2 | F,2 G,2 F,2 F,2 | B,,8 | z4 B,,4 | %17
w: ||||||
w: ||||||
 B,,2 B,,2 B,,2 F,2 | B,2 B,2 B,2 A,G, | F,2 F,2 F,2 G,2 | A,2 B,2 F,4 | B,4 B,2 A,G, | %22
w: |||||
w: |||||
 F,2 F,2 E,2 D,C, | B,,C, D,E, F,2 E,2 | D,2 E,2 F,2 F,2 | B,,8 | z4 B,,4 |: B,,2 B,,2 B,,2 B,,2 | %28
w: ||||||
w: ||||||
 E,2 E,2 C,2 D,C, | B,,2 B,,2 B,,2 F,2 | C,2 D,E, F,4 | B,2 B,A, G,2 F,2 | E,2 D,E, F,2 E,2 | %33
w: |||||
w: |||||
 D,2 C,2 D,2 E,2 |1 F,2 F,2 B,,4- ||1 B,,4 B,,4 :|2 F,2 F,2 B,,4- || B,,8 |] %38
w: |||||
w: |||||

